images/ui-bg.svg

<svg width="680" height="372" viewBox="0 0 680 372" fill="none" xmlns="http://www.w3.org/2000/svg">
<g clip-path="url(#clip0)">
<path d="M680 38.6147H217.47V339.637H680V38.6147Z" fill="#3F3D56"/>
<path d="M238.774 36.9302H203.454V340.76H238.774V36.9302Z" fill="#D0CDE1"/>
<path d="M399.118 120.61H306.612V121.733H399.118V120.61Z" fill="#D0CDE1"/>
<path d="M609.92 283.476H482.654V164.415H609.92V283.476ZM483.775 282.353H608.798V165.538H483.775V282.353Z" fill="#D0CDE1"/>
<path d="M483.597 164.566L482.832 165.387L608.976 283.325L609.742 282.504L483.597 164.566Z" fill="#D0CDE1"/>
<path d="M608.979 164.569L482.829 282.501L483.594 283.322L609.745 165.391L608.979 164.569Z" fill="#D0CDE1"/>
<path d="M437.242 203.166H306.612V204.289H437.242V203.166Z" fill="#D0CDE1"/>
<path d="M437.242 223.384H306.612V224.507H437.242V223.384Z" fill="#D0CDE1"/>
<path d="M437.242 243.602H306.612V244.725H437.242V243.602Z" fill="#D0CDE1"/>
<path d="M415.42 23.7315C421.962 23.7315 427.265 18.4191 427.265 11.8658C427.265 5.31249 421.962 0 415.42 0C408.878 0 403.575 5.31249 403.575 11.8658C403.575 18.4191 408.878 23.7315 415.42 23.7315Z" fill="#3F3D56"/>
<path d="M448.735 23.7315C455.277 23.7315 460.58 18.4191 460.58 11.8658C460.58 5.31249 455.277 0 448.735 0C442.193 0 436.89 5.31249 436.89 11.8658C436.89 18.4191 442.193 23.7315 448.735 23.7315Z" fill="#6C63FF"/>
<path d="M482.05 23.7315C488.592 23.7315 493.896 18.4191 493.896 11.8658C493.896 5.31249 488.592 0 482.05 0C475.508 0 470.205 5.31249 470.205 11.8658C470.205 18.4191 475.508 23.7315 482.05 23.7315Z" fill="#D0CDE1"/>
<path d="M398.446 370.584H0V372H398.446V370.584Z" fill="#3F3D56"/>
<path d="M117.597 138.144C121.901 138.144 125.391 134.649 125.391 130.336C125.391 126.024 121.901 122.528 117.597 122.528C113.292 122.528 109.802 126.024 109.802 130.336C109.802 134.649 113.292 138.144 117.597 138.144Z" fill="#2F2E41"/>
<path d="M134.056 129.179C146.409 129.179 156.423 118.174 156.423 104.599C156.423 91.0232 146.409 80.0181 134.056 80.0181C121.703 80.0181 111.689 91.0232 111.689 104.599C111.689 118.174 121.703 129.179 134.056 129.179Z" fill="#2F2E41"/>
<path d="M118.318 210.295L117.741 213.187C117.741 213.187 116.009 214.922 116.875 215.79C117.741 216.658 117.452 220.706 117.452 220.706L115.72 231.984L105.616 277.675C105.616 277.675 92.3364 286.351 81.9437 303.413C71.551 320.475 71.2623 324.812 71.2623 324.812L82.8098 329.728L111.678 294.737C111.678 294.737 119.762 289.821 122.649 285.483C125.535 281.146 143.434 236.322 143.434 236.322L153.538 283.17C153.538 283.17 152.961 300.232 155.559 311.221C157.156 318.156 158.123 325.221 158.446 332.331L172.014 330.885C172.014 330.885 171.148 289.821 169.705 285.483C169.705 285.483 175.767 235.454 163.642 215.501L156.425 186.293L144.3 185.715L118.318 210.295Z" fill="#2F2E41"/>
<path d="M85.1193 328.572L70.6849 319.607L64.0451 332.331C64.0451 332.331 49.3221 341.296 52.4976 347.947C55.6732 354.599 58.5601 356.334 58.5601 356.334L60.5809 355.466L64.3338 362.407C64.3338 362.407 74.1492 376.577 90.0269 369.347C90.7721 368.344 91.1745 367.127 91.1745 365.877C91.1745 364.627 90.7721 363.41 90.0269 362.407C87.4288 358.647 80.789 350.55 80.789 350.55L85.1193 328.572Z" fill="#2F2E41"/>
<path d="M173.457 328.861L157.58 330.018L159.312 343.031C159.312 343.031 151.806 361.539 157.002 362.985C160.699 363.942 164.463 364.618 168.261 365.009L168.838 362.985C168.838 362.985 191.067 375.131 199.151 366.166C199.151 366.166 200.883 359.804 195.975 357.78C191.067 355.755 181.541 351.418 180.386 349.104C179.231 346.791 173.457 328.861 173.457 328.861Z" fill="#2F2E41"/>
<path d="M134.773 122.384C142.426 122.384 148.63 116.169 148.63 108.503C148.63 100.837 142.426 94.6221 134.773 94.6221C127.12 94.6221 120.916 100.837 120.916 108.503C120.916 116.169 127.12 122.384 134.773 122.384Z" fill="#FFB8B8"/>
<path d="M124.381 116.889C124.381 116.889 126.113 128.167 117.452 132.505C108.792 136.843 140.259 142.048 140.259 142.048C140.259 142.048 135.351 134.529 136.217 131.927C137.083 129.324 141.413 118.913 141.413 118.913L124.381 116.889Z" fill="#FFB8B8"/>
<path d="M122.071 132.794C122.071 132.794 113.699 127.878 110.812 130.192C107.926 132.505 107.059 203.355 117.452 206.247L117.741 210.007C117.741 210.007 113.988 211.742 117.452 211.742C120.917 211.742 137.083 199.885 137.66 195.547C138.238 191.21 154.982 190.342 154.982 190.342C154.982 190.342 159.312 208.85 160.755 208.271C162.199 207.693 162.199 195.258 161.621 193.523C161.044 191.788 168.261 186.293 166.24 182.823C164.22 179.353 158.734 167.497 158.734 167.497C158.734 167.497 159.312 159.978 151.517 153.037C151.517 153.037 149.239 140.12 138.975 139.927C128.711 139.735 122.071 132.794 122.071 132.794Z" fill="#575A89"/>
<path d="M120.977 91.6104V107.477H124.645L129.313 102.466L128.688 107.477H144.902L143.901 102.466L145.902 107.477H148.486V91.6104H120.977Z" fill="#2F2E41"/>
<path d="M154.897 233.778H35.2827V343.206H154.897V233.778Z" fill="#6C63FF"/>
<path d="M106.11 290.757C96.0266 307.248 99.4959 327.761 99.4959 327.761C99.4959 327.761 119.314 321.537 129.398 305.046C139.482 288.555 136.012 268.042 136.012 268.042C136.012 268.042 116.194 274.267 106.11 290.757Z" fill="#3F3D56"/>
<path d="M99.0844 327.897L98.5111 327.806C98.3037 327.773 77.6671 324.348 65.3079 309.535C52.9487 294.722 53.2461 273.77 53.2501 273.56L53.2624 272.979L53.8358 273.07C54.0431 273.103 74.6798 276.528 87.039 291.341C99.3982 306.154 99.1008 327.106 99.0967 327.316L99.0844 327.897Z" fill="#D0CDE1"/>
<path d="M100.125 274.326C106.278 274.326 111.267 269.329 111.267 263.165C111.267 257.001 106.278 252.004 100.125 252.004C93.9718 252.004 88.9835 257.001 88.9835 263.165C88.9835 269.329 93.9718 274.326 100.125 274.326Z" fill="#3F3D56"/>
<path d="M100.42 203.355L103.884 229.093C103.884 229.093 101.863 251.649 109.658 251.938C117.452 252.227 112.545 228.803 112.545 228.803L111.678 205.379C111.678 205.379 105.327 194.969 100.42 203.355Z" fill="#FFB8B8"/>
<path d="M113.411 131.927C113.411 131.927 111.39 126.433 107.059 130.77C102.729 135.108 98.9763 146.386 98.9763 153.327C98.9763 160.267 99.8423 200.464 99.8423 200.464C99.8423 200.464 95.2233 202.199 98.3989 204.801C101.574 207.404 105.905 203.356 105.905 203.356C105.905 203.356 111.678 207.404 112.256 207.404C112.833 207.404 112.545 202.488 112.545 202.488C112.545 202.488 115.431 194.969 114.854 189.185C114.277 183.402 113.411 131.927 113.411 131.927Z" fill="#575A89"/>
<path d="M609.92 104.885H306.052V84.1055H609.92V104.885ZM307.173 103.762H608.798V85.2287H307.173V103.762Z" fill="#D0CDE1"/>
<path d="M67.0171 263.733H37.1136C39.422 254.427 39.1435 244.36 37.1136 233.778H67.0171C62.8312 243.763 62.8312 253.748 67.0171 263.733Z" fill="#D0CDE1"/>
<path d="M59.7678 240.132H41.6444V243.763H59.7678V240.132Z" fill="#3F3D56"/>
<path d="M59.7678 247.394H41.6444V251.024H59.7678V247.394Z" fill="#3F3D56"/>
<path d="M59.7678 254.655H41.6444V258.286H59.7678V254.655Z" fill="#3F3D56"/>
<path d="M336.149 146.358H306.246C308.554 137.052 308.275 126.985 306.246 116.403H336.149C331.963 126.388 331.963 136.373 336.149 146.358Z" fill="#D0CDE1"/>
<path d="M328.9 122.757H310.776V126.388H328.9V122.757Z" fill="#3F3D56"/>
<path d="M328.9 130.019H310.776V133.649H328.9V130.019Z" fill="#3F3D56"/>
<path d="M328.9 137.281H310.776V140.912H328.9V137.281Z" fill="#3F3D56"/>
<path d="M561.341 191.596H531.438C533.746 182.29 533.468 172.223 531.438 161.641H561.341C557.155 171.626 557.155 181.611 561.341 191.596Z" fill="#D0CDE1"/>
<path d="M554.092 167.995H535.969V171.626H554.092V167.995Z" fill="#3F3D56"/>
<path d="M554.092 175.257H535.969V178.888H554.092V175.257Z" fill="#3F3D56"/>
<path d="M554.092 182.519H535.969V186.15H554.092V182.519Z" fill="#3F3D56"/>
<path d="M599.789 127.407H569.885C572.194 118.101 571.915 108.034 569.885 97.4517H599.789C595.603 107.437 595.603 117.422 599.789 127.407Z" fill="#D0CDE1"/>
<path d="M592.539 103.806H574.416V107.437H592.539V103.806Z" fill="#3F3D56"/>
<path d="M592.539 111.067H574.416V114.698H592.539V111.067Z" fill="#3F3D56"/>
<path d="M592.539 118.33H574.416V121.961H592.539V118.33Z" fill="#3F3D56"/>
<path d="M229.048 161.335H213.181V145.441H229.048V161.335ZM214.401 160.113H227.827V146.664H214.401V160.113Z" fill="#3F3D56"/>
<path d="M229.351 196.792H213.484V180.898H229.351V196.792ZM214.704 195.57H228.13V182.121H214.704V195.57Z" fill="#3F3D56"/>
<path d="M229.653 232.25H213.786V216.355H229.653V232.25ZM215.007 231.027H228.433V217.578H215.007V231.027Z" fill="#3F3D56"/>
<path d="M214.094 221.551C216.79 221.551 218.976 219.362 218.976 216.661C218.976 213.96 216.79 211.77 214.094 211.77C211.397 211.77 209.212 213.96 209.212 216.661C209.212 219.362 211.397 221.551 214.094 221.551Z" fill="#6C63FF"/>
</g>
<defs>
<clipPath id="clip0">
<rect width="680" height="372" fill="white"/>
</clipPath>
</defs>
</svg>

<svg xmlns="http://www.w3.org/2000/svg" width="680" height="372" fill="none"  xmlns:v="https://vecta.io/nano"><style><![CDATA[.B{fill:#3f3d56}.C{fill:#d0cde1}.D{fill:#6c63ff}]]></style><g clip-path="url(#A)"><path d="M680 38.615H217.47v301.022H680V38.615z" class="B"/><g class="C"><path d="M238.774 36.93h-35.32v303.83h35.32V36.93zm160.344 83.67h-92.506v1.123h92.506V120.6zM609.92 283.476H482.654v-119.06H609.92v119.06zm-126.145-1.123h125.023V165.538H483.775v116.815z"/><path d="M483.597 164.566l-.765.82 126.144 117.938.766-.82-126.145-117.938z"/><path d="M608.98 164.57L482.83 282.5l.765.82 126.15-117.93-.766-.822zm-171.738 38.596h-130.63v1.123h130.63v-1.123zm0 20.218h-130.63v1.123h130.63v-1.123zm0 20.218h-130.63v1.123h130.63v-1.123z"/></g><path d="M415.42 23.732c6.542 0 11.845-5.312 11.845-11.866S421.962 0 415.42 0s-11.845 5.312-11.845 11.866 5.303 11.866 11.845 11.866z" class="B"/><path d="M448.735 23.732c6.542 0 11.845-5.312 11.845-11.866S455.277 0 448.735 0 436.9 5.312 436.9 11.866s5.303 11.866 11.845 11.866z" class="D"/><path d="M482.05 23.732a11.86 11.86 0 0 0 11.846-11.866A11.86 11.86 0 0 0 482.05 0c-6.542 0-11.845 5.312-11.845 11.866s5.303 11.866 11.845 11.866z" class="C"/><path d="M398.446 370.584H0V372h398.446v-1.416z" class="B"/><g fill="#2f2e41"><path d="M117.597 138.144c4.304 0 7.794-3.495 7.794-7.808s-3.5-7.808-7.794-7.808-7.795 3.496-7.795 7.808 3.5 7.808 7.795 7.808z"/><path d="M134.056 129.18c12.353 0 22.367-11.005 22.367-24.58s-10.014-24.58-22.367-24.58-22.367 11.005-22.367 24.58 10.014 24.58 22.367 24.58zm-15.738 81.115l-.577 2.892s-1.732 1.735-.866 2.603.577 4.916.577 4.916l-1.732 11.278-10.104 45.7s-13.28 8.676-23.672 25.738-10.68 21.4-10.68 21.4l11.548 4.916 28.868-35s8.084-4.916 10.97-9.254 20.785-49.16 20.785-49.16l10.104 46.848s-.577 17.062 2.02 28.05a117.93 117.93 0 0 1 2.887 21.1l13.568-1.446s-.866-41.064-2.3-45.402c0 0 6.062-50.03-6.063-69.982l-7.217-29.208-12.125-.578-25.982 24.58z"/><path d="M85.12 328.572l-14.434-8.965-6.64 12.724s-14.723 8.965-11.548 15.616 6.063 8.387 6.063 8.387l2.02-.868 3.753 6.94s9.815 14.17 25.693 6.94a5.82 5.82 0 0 0 0-6.94c-2.598-3.76-9.238-11.857-9.238-11.857l4.33-21.978zm88.337.288l-15.877 1.157 1.732 13.013s-7.506 18.508-2.3 19.954c3.697.957 7.46 1.633 11.26 2.024l.577-2.024s22.23 12.146 30.313 3.18c0 0 1.732-6.362-3.176-8.386s-14.434-6.362-15.6-8.676-6.93-20.243-6.93-20.243z"/></g><g fill="#ffb8b8"><path d="M134.773 122.384c7.653 0 13.857-6.215 13.857-13.88s-6.204-13.88-13.857-13.88-13.857 6.215-13.857 13.88 6.204 13.88 13.857 13.88z"/><path d="M124.38 116.89s1.732 11.278-6.93 15.616 22.807 9.543 22.807 9.543-4.908-7.52-4.042-10.12 5.196-13.014 5.196-13.014l-17.032-2.024z"/></g><path d="M122.07 132.794s-8.372-4.916-11.26-2.602-3.753 73.163 6.64 76.055l.29 3.76s-3.753 1.735-.29 1.735 19.63-11.857 20.208-16.195 17.322-5.205 17.322-5.205 4.33 18.508 5.773 17.93 1.444-13.013.866-14.748 6.64-7.23 4.62-10.7-7.506-15.326-7.506-15.326.578-7.52-7.217-14.46c0 0-2.278-12.917-12.542-13.1s-16.904-7.133-16.904-7.133z" fill="#575a89"/><path d="M120.977 91.6v15.867h3.668l4.668-5.01-.625 5.01h16.214l-1-5.01 2 5.01h2.584V91.6h-27.51z" fill="#2f2e41"/><path d="M154.897 233.778H35.283v109.428h119.614V233.778z" class="D"/><path d="M106.1 290.757c-10.083 16.49-6.614 37.004-6.614 37.004s19.818-6.224 29.902-22.715 6.614-37.004 6.614-37.004-19.818 6.225-29.902 22.715z" class="B"/><path d="M99.084 327.897l-.573-.09c-.207-.033-20.844-3.458-33.203-18.27S53.246 273.77 53.25 273.56l.012-.58.573.09c.207.033 20.844 3.458 33.203 18.27s12.062 35.765 12.058 35.975l-.012.58z" class="C"/><path d="M100.125 274.326c6.153 0 11.142-4.997 11.142-11.16s-4.99-11.16-11.142-11.16-11.14 4.997-11.14 11.16 4.988 11.16 11.14 11.16z" class="B"/><path d="M100.42 203.355l3.464 25.738s-2.02 22.556 5.774 22.845 2.887-23.135 2.887-23.135l-.867-23.424s-6.35-10.4-11.258-2.024z" fill="#ffb8b8"/><path d="M113.41 131.927s-2.02-5.494-6.352-1.157-8.083 15.616-8.083 22.557.866 47.137.866 47.137-4.62 1.735-1.443 4.337 7.506-1.445 7.506-1.445 5.773 4.048 6.35 4.048.29-4.916.29-4.916 2.886-7.52 2.31-13.303-1.443-57.258-1.443-57.258z" fill="#575a89"/><g class="C"><path d="M609.92 104.885H306.052v-20.78H609.92v20.78zm-302.747-1.123h301.625V85.23H307.173v18.533zM67.017 263.733H37.114c2.308-9.306 2.03-19.373 0-29.955h29.904c-4.186 9.985-4.186 19.97 0 29.955z"/></g><g class="B"><path d="M59.768 240.132H41.644v3.63h18.123v-3.63zm0 7.262H41.644v3.63h18.123v-3.63zm0 7.26H41.644v3.63h18.123v-3.63z"/></g><path d="M336.15 146.358h-29.903c2.308-9.306 2.03-19.373 0-29.955h29.903c-4.186 9.985-4.186 19.97 0 29.955z" class="C"/><g class="B"><path d="M328.9 122.757h-18.124v3.63H328.9v-3.63zm0 7.263h-18.124v3.63H328.9v-3.63zm0 7.26h-18.124v3.63H328.9v-3.63z"/></g><path d="M561.34 191.596h-29.903c2.308-9.306 2.03-19.373 0-29.955h29.903c-4.186 9.985-4.186 19.97 0 29.955z" class="C"/><g class="B"><path d="M554.092 167.995H535.97v3.63h18.123v-3.63zm0 7.262H535.97v3.63h18.123v-3.63zm0 7.263H535.97v3.63h18.123v-3.63z"/></g><path d="M599.79 127.407h-29.904c2.31-9.306 2.03-19.373 0-29.955h29.904c-4.186 9.985-4.186 19.97 0 29.955z" class="C"/><g class="B"><path d="M592.54 103.806h-18.123v3.63h18.123v-3.63zm0 7.26h-18.123v3.63h18.123v-3.63zm0 7.263h-18.123v3.63h18.123v-3.63zm-363.492 43.005H213.18V145.44h15.867v15.894zm-14.647-1.222h13.426v-13.45H214.4v13.45zm14.95 36.68h-15.867v-15.894h15.867v15.894zm-14.647-1.222h13.426v-13.45h-13.426v13.45zm14.95 36.68h-15.867v-15.895h15.867v15.895zm-14.646-1.223h13.426v-13.45h-13.426v13.45z"/></g><path d="M214.094 221.55c2.696 0 4.882-2.19 4.882-4.9s-2.186-4.89-4.882-4.89-4.882 2.2-4.882 4.89 2.185 4.9 4.882 4.9z" class="D"/></g><defs><clipPath id="A"><path fill="#fff" d="M0 0h680v372H0z"/></clipPath></defs></svg>
